Newaita-dark/mimetypes/22/x-media-podcast.svg

<?xml version="1.0" encoding="UTF-8"?>
<svg xmlns="http://www.w3.org/2000/svg" xmlns:xlink="http://www.w3.org/1999/xlink" width="22px" height="22px" viewBox="0 0 22 22" version="1.1">
<defs>
<linearGradient id="linear0" gradientUnits="userSpaceOnUse" x1="254" y1="233.5" x2="254" y2="254.666672" gradientTransform="matrix(0.0429729,0,0,0.0429729,0.454795,9.239165)">
<stop offset="0" style="stop-color:rgb(0%,0%,0%);stop-opacity:0.27451;"/>
<stop offset="1" style="stop-color:rgb(0%,0%,0%);stop-opacity:0;"/>
</linearGradient>
<radialGradient id="radial0" gradientUnits="userSpaceOnUse" cx="450.908936" cy="189.579361" fx="450.908936" fy="189.579361" r="21.166656" gradientTransform="matrix(0.000000119742,-0.0537161,-0.0966889,-0.0000000698078,34.020641,43.721791)">
<stop offset="0" style="stop-color:rgb(0%,0%,0%);stop-opacity:0.313726;"/>
<stop offset="0.222222" style="stop-color:rgb(0%,0%,0%);stop-opacity:0.27451;"/>
<stop offset="1" style="stop-color:rgb(0%,0%,0%);stop-opacity:0;"/>
</radialGradient>
<radialGradient id="radial1" gradientUnits="userSpaceOnUse" cx="450.908936" cy="189.579361" fx="450.908936" fy="189.579361" r="21.166656" gradientTransform="matrix(-0.000000119742,0.0537161,0.0966889,0.0000000698078,-12.645221,-5.175142)">
<stop offset="0" style="stop-color:rgb(0%,0%,0%);stop-opacity:0.313726;"/>
<stop offset="0.222222" style="stop-color:rgb(0%,0%,0%);stop-opacity:0.27451;"/>
<stop offset="1" style="stop-color:rgb(0%,0%,0%);stop-opacity:0;"/>
</radialGradient>
<radialGradient id="radial2" gradientUnits="userSpaceOnUse" cx="450.908936" cy="189.579361" fx="450.908936" fy="189.579361" r="21.166656" gradientTransform="matrix(-0.000000119742,-0.0537161,0.0966889,-0.0000000698078,-12.645221,43.721791)">
<stop offset="0" style="stop-color:rgb(0%,0%,0%);stop-opacity:0.313726;"/>
<stop offset="0.222222" style="stop-color:rgb(0%,0%,0%);stop-opacity:0.27451;"/>
<stop offset="1" style="stop-color:rgb(0%,0%,0%);stop-opacity:0;"/>
</radialGradient>
<radialGradient id="radial3" gradientUnits="userSpaceOnUse" cx="450.908936" cy="189.579361" fx="450.908936" fy="189.579361" r="21.166656" gradientTransform="matrix(0.000000119742,0.0537161,-0.0966889,0.0000000698078,34.02064,-5.175142)">
<stop offset="0" style="stop-color:rgb(0%,0%,0%);stop-opacity:0.313726;"/>
<stop offset="0.222222" style="stop-color:rgb(0%,0%,0%);stop-opacity:0.27451;"/>
<stop offset="1" style="stop-color:rgb(0%,0%,0%);stop-opacity:0;"/>
</radialGradient>
<linearGradient id="linear1" gradientUnits="userSpaceOnUse" x1="940" y1="1695.118164" x2="940" y2="175.118118" gradientTransform="matrix(0.0113699,0,0,0.0113699,0,0)">
<stop offset="0" style="stop-color:rgb(80.784315%,57.647061%,84.705883%);stop-opacity:1;"/>
<stop offset="1" style="stop-color:rgb(88.235295%,74.509805%,90.588236%);stop-opacity:1;"/>
</linearGradient>
<linearGradient id="linear2" gradientUnits="userSpaceOnUse" x1="249.189423" y1="233.5" x2="249.189423" y2="254.666687" gradientTransform="matrix(0.0205522,0,0,0.0752024,10.341666,-11.248126)">
<stop offset="0" style="stop-color:rgb(0%,0%,0%);stop-opacity:0.27451;"/>
<stop offset="1" style="stop-color:rgb(0%,0%,0%);stop-opacity:0;"/>
</linearGradient>
<linearGradient id="linear3" gradientUnits="userSpaceOnUse" x1="338.666656" y1="233.5" x2="338.666656" y2="-168.666672" gradientTransform="matrix(0.0429729,0,0,0.0429729,0,9.239163)">
<stop offset="0" style="stop-color:rgb(67.058825%,27.843139%,73.725492%);stop-opacity:1;"/>
<stop offset="1" style="stop-color:rgb(72.941178%,40.784314%,78.431374%);stop-opacity:1;"/>
</linearGradient>
<filter id="alpha" filterUnits="objectBoundingBox" x="0%" y="0%" width="100%" height="100%">
  <feColorMatrix type="matrix" in="SourceGraphic" values="0 0 0 0 1 0 0 0 0 1 0 0 0 0 1 0 0 0 1 0"/>
</filter>
<mask id="mask0">
  <g filter="url(#alpha)">
<rect x="0" y="0" width="22" height="22" style="fill:rgb(0%,0%,0%);fill-opacity:0.99;stroke:none;"/>
  </g>
</mask>
<linearGradient id="linear4" gradientUnits="userSpaceOnUse" x1="890.828369" y1="1367.577026" x2="890.828369" y2="-152.423019" gradientTransform="matrix(1,0,0,1,49.171638,327.541138)">
<stop offset="0" style="stop-color:rgb(67.058825%,27.843139%,73.725492%);stop-opacity:1;"/>
<stop offset="1" style="stop-color:rgb(72.941178%,40.784314%,78.431374%);stop-opacity:1;"/>
</linearGradient>
<clipPath id="clip1">
  <rect x="0" y="0" width="22" height="22"/>
</clipPath>
<g id="surface5" clip-path="url(#clip1)">
<path style="fill-rule:nonzero;fill:url(#linear4);stroke-width:11.338583;stroke-linecap:round;stroke-linejoin:round;stroke:rgb(12.941177%,12.941177%,12.941177%);stroke-opacity:1;stroke-miterlimit:4;" d="M 840.005726 695.023143 C 795.686405 695.023143 759.956101 730.753448 759.956101 775.072768 L 759.956101 794.999284 L 879.858758 794.999284 C 891.196259 794.999284 900.128835 803.93186 900.128835 815.269361 L 900.128835 855.122393 C 900.128835 866.116333 891.196259 875.04891 879.858758 875.04891 L 759.956101 875.04891 L 759.956101 955.098535 L 879.858758 955.098535 C 891.196259 955.098535 900.128835 964.031111 900.128835 975.025051 L 900.128835 1015.221644 C 900.128835 1026.215584 891.196259 1035.14816 879.858758 1035.14816 L 759.956101 1035.14816 L 759.956101 1055.074677 C 759.956101 1099.393997 795.686405 1135.124302 840.005726 1135.124302 L 1039.958009 1135.124302 C 1084.27733 1135.124302 1120.007635 1099.393997 1120.007635 1055.074677 L 1120.007635 1035.14816 L 1000.104977 1035.14816 C 988.767476 1035.14816 979.8349 1026.215584 979.8349 1015.221644 L 979.8349 975.025051 C 979.8349 964.031111 988.767476 955.098535 1000.104977 955.098535 L 1120.007635 955.098535 L 1120.007635 875.04891 L 1000.104977 875.04891 C 988.767476 875.04891 979.8349 866.116333 979.8349 855.122393 L 979.8349 815.269361 C 979.8349 803.93186 988.767476 794.999284 1000.104977 794.999284 L 1120.007635 794.999284 L 1120.007635 775.072768 C 1120.007635 730.753448 1084.27733 695.023143 1039.958009 695.023143 Z M 859.932242 1174.977334 C 848.938302 1174.977334 840.005726 1183.909911 840.005726 1195.247411 L 840.005726 1235.100444 C 840.005726 1246.094384 848.938302 1255.02696 859.932242 1255.02696 L 1020.031493 1255.02696 C 1031.025433 1255.02696 1039.958009 1246.094384 1039.958009 1235.100444 L 1039.958009 1195.247411 C 1039.958009 1183.909911 1031.025433 1174.977334 1020.031493 1174.977334 Z M 859.932242 1174.977334 " transform="matrix(0.0113699,0,0,0.0113699,0,0)"/>
</g>
</defs>
<g id="surface1">
<path style=" stroke:none;fill-rule:nonzero;fill:url(#linear0);" d="M 5.457031 19.273438 L 15.917969 19.273438 L 15.917969 20.183594 L 5.457031 20.183594 Z M 5.457031 19.273438 "/>
<path style=" stroke:none;fill-rule:nonzero;fill:url(#radial0);" d="M 15.917969 19.273438 L 17.738281 19.273438 L 17.738281 18.363281 L 15.917969 18.363281 Z M 15.917969 19.273438 "/>
<path style=" stroke:none;fill-rule:nonzero;fill:url(#radial1);" d="M 5.457031 19.273438 L 3.636719 19.273438 L 3.636719 20.183594 L 5.457031 20.183594 Z M 5.457031 19.273438 "/>
<path style=" stroke:none;fill-rule:nonzero;fill:url(#radial2);" d="M 5.457031 19.273438 L 3.636719 19.273438 L 3.636719 18.363281 L 5.457031 18.363281 Z M 5.457031 19.273438 "/>
<path style=" stroke:none;fill-rule:nonzero;fill:url(#radial3);" d="M 15.917969 19.273438 L 17.738281 19.273438 L 17.738281 20.183594 L 15.917969 20.183594 Z M 15.917969 19.273438 "/>
<path style=" stroke:none;fill-rule:nonzero;fill:url(#linear1);" d="M 12.746094 1.992188 L 4.546875 1.992188 C 4.042969 1.992188 3.636719 2.398438 3.636719 2.902344 L 3.636719 18.363281 C 3.636719 18.867188 4.042969 19.273438 4.546875 19.273438 L 16.828125 19.273438 C 17.332031 19.273438 17.738281 18.867188 17.738281 18.363281 L 17.738281 6.980469 Z M 12.746094 1.992188 "/>
<path style=" stroke:none;fill-rule:nonzero;fill:url(#linear2);" d="M 12.734375 6.3125 L 17.054688 6.3125 L 17.738281 6.992188 L 17.738281 7.902344 L 12.734375 7.902344 Z M 12.734375 6.3125 "/>
<path style=" stroke:none;fill-rule:nonzero;fill:rgb(0%,0%,0%);fill-opacity:0.235294;" d="M 3.636719 18.011719 L 3.636719 18.363281 C 3.636719 18.867188 4.042969 19.273438 4.546875 19.273438 L 16.828125 19.273438 C 17.332031 19.273438 17.738281 18.867188 17.738281 18.363281 L 17.738281 18.011719 C 17.738281 18.515625 17.332031 18.921875 16.828125 18.921875 L 4.546875 18.921875 C 4.042969 18.921875 3.636719 18.515625 3.636719 18.011719 Z M 3.636719 18.011719 "/>
<path style=" stroke:none;fill-rule:nonzero;fill:rgb(100%,100%,100%);fill-opacity:0.392157;" d="M 4.546875 1.992188 C 4.042969 1.992188 3.636719 2.398438 3.636719 2.902344 L 3.636719 3.242188 C 3.636719 2.738281 4.042969 2.332031 4.546875 2.332031 L 12.746094 2.332031 L 17.738281 7.320312 L 17.738281 6.980469 L 12.746094 1.992188 Z M 4.546875 1.992188 "/>
<path style=" stroke:none;fill-rule:nonzero;fill:url(#linear3);" d="M 17.738281 6.980469 L 12.746094 1.992188 L 12.746094 6.070312 C 12.746094 6.574219 13.152344 6.980469 13.65625 6.980469 Z M 17.738281 6.980469 "/>
<path style=" stroke:none;fill-rule:nonzero;fill:rgb(0%,0%,0%);fill-opacity:0.235294;" d="M 12.746094 5.855469 L 12.746094 6.070312 C 12.746094 6.574219 13.152344 6.980469 13.65625 6.980469 L 17.738281 6.980469 L 17.523438 6.765625 L 13.65625 6.765625 C 13.152344 6.765625 12.746094 6.359375 12.746094 5.855469 Z M 12.746094 5.855469 "/>
<path style=" stroke:none;fill-rule:nonzero;fill:rgb(100%,100%,100%);fill-opacity:0.392157;" d="M 12.746094 1.992188 L 12.746094 2.332031 L 17.394531 6.980469 L 17.738281 6.980469 Z M 12.746094 1.992188 "/>
<path style=" stroke:none;fill-rule:nonzero;fill:rgb(12.941177%,12.941177%,12.941177%);fill-opacity:1;" d="M 12.746094 1.925781 C 12.710938 1.925781 12.683594 1.957031 12.683594 1.992188 L 12.683594 6.070312 C 12.683594 6.609375 13.117188 7.042969 13.65625 7.042969 L 17.738281 7.042969 C 17.761719 7.042969 17.785156 7.027344 17.796875 7.003906 C 17.804688 6.980469 17.800781 6.953125 17.78125 6.933594 L 12.792969 1.945312 C 12.78125 1.933594 12.765625 1.925781 12.746094 1.925781 Z M 12.8125 2.148438 L 17.582031 6.914062 L 13.65625 6.914062 C 13.1875 6.914062 12.8125 6.539062 12.8125 6.070312 Z M 12.8125 2.148438 "/>
<path style=" stroke:none;fill-rule:nonzero;fill:rgb(12.941177%,12.941177%,12.941177%);fill-opacity:1;" d="M 4.546875 1.925781 C 4.007812 1.925781 3.574219 2.363281 3.574219 2.902344 L 3.574219 18.363281 C 3.574219 18.902344 4.007812 19.335938 4.546875 19.335938 L 16.828125 19.335938 C 17.367188 19.335938 17.800781 18.902344 17.800781 18.363281 L 17.800781 6.980469 C 17.800781 6.964844 17.792969 6.945312 17.78125 6.933594 L 12.792969 1.945312 C 12.78125 1.933594 12.765625 1.925781 12.746094 1.925781 Z M 4.546875 2.054688 L 12.722656 2.054688 L 17.671875 7.007812 L 17.671875 18.363281 C 17.671875 18.832031 17.296875 19.207031 16.828125 19.207031 L 4.546875 19.207031 C 4.078125 19.207031 3.703125 18.832031 3.703125 18.363281 L 3.703125 2.902344 C 3.703125 2.429688 4.078125 2.054688 4.546875 2.054688 Z M 4.546875 2.054688 "/>
<use xlink:href="#surface5" mask="url(#mask0)"/>
</g>
</svg>

<svg xmlns="http://www.w3.org/2000/svg" xmlns:xlink="http://www.w3.org/1999/xlink" width="22pt" height="22pt" viewBox="0 0 22 22"><defs><linearGradient id="d" gradientUnits="userSpaceOnUse" x1="254" y1="233.5" x2="254" y2="254.667" gradientTransform="matrix(.04297 0 0 .04297 .455 9.24)"><stop offset="0" stop-opacity=".275"/><stop offset="1" stop-opacity="0"/></linearGradient><radialGradient id="e" gradientUnits="userSpaceOnUse" cx="450.909" cy="189.579" fx="450.909" fy="189.579" r="21.167" gradientTransform="matrix(0 -.05372 -.09669 0 34.02 43.722)"><stop offset="0" stop-opacity=".314"/><stop offset=".222" stop-opacity=".275"/><stop offset="1" stop-opacity="0"/></radialGradient><radialGradient id="f" gradientUnits="userSpaceOnUse" cx="450.909" cy="189.579" fx="450.909" fy="189.579" r="21.167" gradientTransform="matrix(0 .05372 .09669 0 -12.645 -5.175)"><stop offset="0" stop-opacity=".314"/><stop offset=".222" stop-opacity=".275"/><stop offset="1" stop-opacity="0"/></radialGradient><radialGradient id="g" gradientUnits="userSpaceOnUse" cx="450.909" cy="189.579" fx="450.909" fy="189.579" r="21.167" gradientTransform="matrix(0 -.05372 .09669 0 -12.645 43.722)"><stop offset="0" stop-opacity=".314"/><stop offset=".222" stop-opacity=".275"/><stop offset="1" stop-opacity="0"/></radialGradient><radialGradient id="h" gradientUnits="userSpaceOnUse" cx="450.909" cy="189.579" fx="450.909" fy="189.579" r="21.167" gradientTransform="matrix(0 .05372 -.09669 0 34.02 -5.175)"><stop offset="0" stop-opacity=".314"/><stop offset=".222" stop-opacity=".275"/><stop offset="1" stop-opacity="0"/></radialGradient><linearGradient id="i" gradientUnits="userSpaceOnUse" x1="940" y1="1695.118" x2="940" y2="175.118" gradientTransform="rotate(.24) scale(.01137)"><stop offset="0" stop-color="#ce93d8"/><stop offset="1" stop-color="#e1bee7"/></linearGradient><linearGradient id="j" gradientUnits="userSpaceOnUse" x1="249.189" y1="233.5" x2="249.189" y2="254.667" gradientTransform="matrix(.02055 0 0 .0752 10.342 -11.248)"><stop offset="0" stop-opacity=".275"/><stop offset="1" stop-opacity="0"/></linearGradient><linearGradient id="k" gradientUnits="userSpaceOnUse" x1="338.667" y1="233.5" x2="338.667" y2="-168.667" gradientTransform="matrix(.04297 0 0 .04297 0 9.24)"><stop offset="0" stop-color="#ab47bc"/><stop offset="1" stop-color="#ba68c8"/></linearGradient><filter id="a" filterUnits="objectBoundingBox" x="0%" y="0%" width="100%" height="100%"><feColorMatrix in="SourceGraphic" values="0 0 0 0 1 0 0 0 0 1 0 0 0 0 1 0 0 0 1 0"/></filter><mask id="m"><path fill-opacity=".988" d="M0 0h22v22H0z" filter="url(#a)"/></mask><linearGradient id="c" gradientUnits="userSpaceOnUse" x1="890.828" y1="1367.577" x2="890.828" y2="-152.423" gradientTransform="translate(49.172 327.541)"><stop offset="0" stop-color="#ab47bc"/><stop offset="1" stop-color="#ba68c8"/></linearGradient><clipPath id="b"><path d="M0 0h22v22H0z"/></clipPath><g id="l" clip-path="url(#b)"><path d="M840.006 695.023c-44.32 0-80.05 35.73-80.05 80.05v19.926H879.86c11.337 0 20.27 8.933 20.27 20.27v39.853c0 10.994-8.933 19.927-20.27 19.927H759.956v80.05H879.86c11.337 0 20.27 8.932 20.27 19.926v40.197c0 10.994-8.933 19.926-20.27 19.926H759.956v19.927c0 44.319 35.73 80.05 80.05 80.05h199.952c44.32 0 80.05-35.731 80.05-80.05v-19.927h-119.903c-11.338 0-20.27-8.932-20.27-19.926v-40.197c0-10.994 8.932-19.926 20.27-19.926h119.903v-80.05h-119.903c-11.338 0-20.27-8.933-20.27-19.927V815.27c0-11.337 8.932-20.27 20.27-20.27h119.903v-19.926c0-44.32-35.73-80.05-80.05-80.05zm19.926 479.954c-10.994 0-19.926 8.933-19.926 20.27v39.853c0 10.994 8.932 19.927 19.926 19.927h160.1c10.993 0 19.926-8.933 19.926-19.927v-39.853c0-11.337-8.933-20.27-19.927-20.27zm0 0" transform="rotate(.24) scale(.01137)" fill="url(#c)" stroke-width="11.339" stroke-linecap="round" stroke-linejoin="round" stroke="#212121"/></g></defs><path d="M5.457 19.273h10.461v.91H5.457zm0 0" fill="url(#d)"/><path d="M15.918 19.273h1.82v-.91h-1.82zm0 0" fill="url(#e)"/><path d="M5.457 19.273h-1.82v.91h1.82zm0 0" fill="url(#f)"/><path d="M5.457 19.273h-1.82v-.91h1.82zm0 0" fill="url(#g)"/><path d="M15.918 19.273h1.82v.91h-1.82zm0 0" fill="url(#h)"/><path d="M12.746 1.992h-8.2a.909.909 0 0 0-.91.91v15.461c0 .504.407.91.91.91h12.282c.504 0 .91-.406.91-.91V6.98zm0 0" fill="url(#i)"/><path d="M12.734 6.313h4.32l.684.68v.91h-5.004zm0 0" fill="url(#j)"/><path d="M3.637 18.012v.351c0 .504.406.91.91.91h12.281c.504 0 .91-.406.91-.91v-.351c0 .504-.406.91-.91.91H4.547a.909.909 0 0 1-.91-.91zm0 0" fill-opacity=".235"/><path d="M4.547 1.992a.909.909 0 0 0-.91.91v.34c0-.504.406-.91.91-.91h8.2l4.991 4.988v-.34l-4.992-4.988zm0 0" fill="#fff" fill-opacity=".392"/><path d="M17.738 6.98l-4.992-4.988V6.07c0 .504.406.91.91.91zm0 0" fill="url(#k)"/><path d="M12.746 5.855v.215c0 .504.406.91.91.91h4.082l-.215-.214h-3.867a.909.909 0 0 1-.91-.91zm0 0" fill-opacity=".235"/><path d="M12.746 1.992v.34l4.649 4.648h.343zm0 0" fill="#fff" fill-opacity=".392"/><path d="M12.746 1.926c-.035 0-.062.031-.062.066V6.07c0 .54.433.973.972.973h4.082a.068.068 0 0 0 .059-.04.068.068 0 0 0-.016-.07l-4.988-4.988a.065.065 0 0 0-.047-.02zm.066.222l4.77 4.766h-3.926a.84.84 0 0 1-.844-.844zm0 0" fill="#212121"/><path d="M4.547 1.926a.974.974 0 0 0-.973.976v15.461c0 .54.434.973.973.973h12.281a.97.97 0 0 0 .973-.973V6.98a.072.072 0 0 0-.02-.046l-4.988-4.989a.065.065 0 0 0-.047-.02zm0 .129h8.176l4.949 4.953v11.355a.84.84 0 0 1-.844.844H4.547a.84.84 0 0 1-.844-.844V2.903c0-.473.375-.848.844-.848zm0 0" fill="#212121"/><use xlink:href="#l" mask="url(#m)"/></svg>
